icons/githubContributing.svg

<svg xmlns="http://www.w3.org/2000/svg" viewBox="0 0 24 24"><path fill="#d92f3c" d="M20 13q.9 0 1.5.6c.3.4.5.9.5 1.4l-8 3-7-2V7h1.9l7.3 2.7c.5.2.8.6.8 1.1 0 .3-.1.6-.3.8s-.6.4-.9.4H13l-1.8-.7-.3.9 2.1.8zM1 7h4v11H1z" data-iconColor="Github CONTRIBUTING"/></svg>

<!--
  - The MIT License (MIT)
  -
  - Copyright (c) 2015-2024 Elior "Mallowigi" Boukhobza
  -
  - Permission is hereby granted, free of charge, to any person obtaining a copy
  - of this software and associated documentation files (the "Software"), to deal
  - in the Software without restriction, including without limitation the rights
  - to use, copy, modify, merge, publish, distribute, sublicense, and/or sell
  - copies of the Software, and to permit persons to whom the Software is
  - furnished to do so, subject to the following conditions:
  -
  - The above copyright notice and this permission notice shall be included in all
  - copies or substantial portions of the Software.
  -
  - THE SOFTWARE IS PROVIDED "AS IS", WITHOUT WARRANTY OF ANY KIND, EXPRESS OR
  - IMPLIED, INCLUDING BUT NOT LIMITED TO THE WARRANTIES OF MERCHANTABILITY,
  - FITNESS FOR A PARTICULAR PURPOSE AND NONINFRINGEMENT. IN NO EVENT SHALL THE
  - AUTHORS OR COPYRIGHT HOLDERS BE LIABLE FOR ANY CLAIM, DAMAGES OR OTHER
  - LIABILITY, WHETHER IN AN ACTION OF CONTRACT, TORT OR OTHERWISE, ARISING FROM,
  - OUT OF OR IN CONNECTION WITH THE SOFTWARE OR THE USE OR OTHER DEALINGS IN THE
  - SOFTWARE.
  -
  -->

<svg  version="1.1" xmlns="http://www.w3.org/2000/svg" x="0px" y="0px" width="16px" height="16px"
     viewBox="0 0 24 24">
  <path fill="#d92f3c" data-iconColor="Github CONTRIBUTING"
        d="M20 13C20.6 13 21.1 13.2 21.5 13.6C21.8 14 22 14.5 22 15L14 18L7 16V7H8.9L16.2 9.7C16.7 9.9 17 10.3 17 10.8C17 11.1 16.9 11.4 16.7 11.6S16.1 12 15.8 12H13L11.2 11.3L10.9 12.2L13 13H20M1 7H5V18H1V7Z"/>
</svg>
